www/assets/icons/warehouse.svg

<svg xmlns="http://www.w3.org/2000/svg" width="24" height="24" viewBox="0 0 24 24" fill='currentColor'><path d="M22 21V7L12 3 2 7v14h5v-9h10v9zm-11-2H9v2h2zm2-3h-2v2h2zm2 3h-2v2h2z"/></svg>

<svg width="24" height="24" viewBox="0 0 24 24" xmlns="http://www.w3.org/2000/svg" fill='currentColor'><path d="M22 21V7L12 3L2 7V21H7V12H17V21H22ZM11 19H9V21H11V19ZM13 16H11V18H13V16ZM15 19H13V21H15V19Z"/></svg>
